X: 18
T:The Jackpike
C:Neil Brookes
N:Play as a set after La Trombe
M:4/4
L:1/4
Q:2/4=120
K:Ddor
|A>DAc=BGE2|D/2E/2F/2G/2AGEG^FD|A>DAc=BGE2|D/2E/2F/2G/2AGE2D2|
|A.D/2D/2Ac=BGE2|D/2E/2F/2G/2AGEG^FD|A>DAc=BGE2|D/2E/2F/2G/2AGE2D2|
|d>DdfecAz/2D/2|Ac^=BGD/2E/2F/2G/2AG|AddfecA2|a>agfecA2|
|d>DdfecAz/2D/2|Ac=BGD/2E/2F/2G/2AG|A{g}a2gfede|fg/2f/2 ec d2d2|
